X: 2
T: The Chocolate Round O
R: reel
Z: 2005 John Chambers <jc@trillian.mit.edu>
M: C|
L: 1/8
Q: 1/2=110
K: Am
e2 \
| "Am"A2B2 "E7"E^F^GE | "Am"ABcd e2c2 | "Dm"d2e2 "G7"fagf | "C"e2c2 "E7"z2e2 | "Am"A2B2 "E7"E^F^GE |
| "Am"A2e2 z2c2 | "Dm"d2e2 fedc |1 "E7"B6 :|2 "G7"d6 |: "(C)"c2 | "C"g2a2 "G7"defg | "C"e2c2 z2c2 |
| "G7"g2a2 "Dm"dcBA | "E"e4 z2e2 | "Dm"f2fe "A7"d2^c2 | "Dm"d2de "A7"f2e2 | "Dm"dcBA "E7"^G2e2 | "Am"c2 A4 :|
%%sep 1 1 10cm
